X: 7
T:Tar Road to Sligo, The
M:6/8
L:1/8
R:Double Jig
K:D
e[|:fdB Bcd|ecA BAG|FAA ABc|dcd efg|!
fdB Bcd|ecA BAG|FAA Aag|1fdc d2e:|2fdc d2B||!
Aff Aff|gfg efg|afd dcd|Bed cBA|!
"var."Adf Adf|gfg efg|afd bge|edc d2B||!
Aff Aff|gfg efg|afd dcd|Bed cBA|!
fdB gec|afd bge|a^ga bge|edc d2e|]!
